!!!OTL: Morgen will mein Schatz ... (2-34), S. 89f
!!!id: K1118
**kern
*clefG2
*k[]
*C:
{16c
=1
16c
4.g
8f
8e
8g
8cc
8e
=2
4g
4f
4d
4d}
=3
{4.g
8g
8b
8a
8g
8f
=4
4e
4c
4c}
4r
=5
{4.cc
8cc
8dd
8cc
8b
8cc
=6
4a
4a
8dd
8cc
8b
8cc
=7
8g
8g}
=8
{8f#
8g
8b
8a
8g
8f
=9
4e
4c
4c}
=10
{8.g
16f
=11
8.e
16e
8.e
16e
4e
8.a
16g
=12
8g
8f
8.f
16f
4f}
=13
{8.g
16g
=14
4b
8.b
16b
8b
8a
8.g
16g
=15
8.cc
16cc
8.cc
16cc
4cc}
=16
{8.g
16f
=17
8.e
16c
8.c
16c
4c
8.cc
16b
=18
8a
8f
8.f
16f
4f
8.dd
16dd}
=19
{4.cc
8cc
4b
8a
8b
=20
2cc}
2r
==
*-
!!!minrhy: 16
!!!meters: 4/4 ]  ZZ[8
!!!cut: Morgen will mein Schatz ... (2-34), S. 89f
!!!reg: Luxemburg
!!!trd: KINTZELE, Guillaume: An der Ucht, Bd. 2, Luxemburg 1927
!!!rhy1:   X__.X_X_X_X_X_  X__X__X__X__   (x2)
!!!rhy2: X__.X_X_X_X_X_  X__X__X__0_
!!!key: K1118  16  C 4/4 ]  ZZ[8
!!!mod: ACHTTONSKALA DUR ?]  AMBITUS[9
!!!kad: 21514+1+2+1
!!!akz: 5352_5731_+1+26+25_731_3354_77+1+1_3164_+17+1_
!!!fot: 'a__b__c__d__e__es"f__g__
!!!for: 'a__a__aw_b__c__d__cw_e__
!!!fok: 'Sd_^d_Sd_^d_\__~a_Va_V__
!! PHRAS[GEMISCHTTAKTIG]
!!!fkt: Trennung, Abschied
!!!bem: in der Quelle mit einer 2. Stimme versehen
!! KINTZELE
!! PR[7] 2K[8] 2G[12] 3K[5] 3G[3] 4A[5] 4Ü[0] 5A[2] 6K[0] 6G[0]
!! 7K[0] 7G[0] 8A[0] MEHR[0] SI[35] ABS[60] SR[20] SP[15]
!! ST[16] 2k[15] 2g[37] 3k[7] 3g[0] 4d[0] 4ü[0] 5d[0] 6k[0] 6g[0]
!! 7k[0] 7g[0] 8d[0] mehr[0] si[58] dm[-23] sr[52] sp[7]
!! 1F[10] 2F[49] 3F[25] 4F[0] LF[0] 2P[7] 3P[9] 4P[0] TRI[0] DF[5] AB[68]
!! TF[0] U3K[0] U3[0] U4[0] U4Ü[0] U5[0] U6K[0] U6[0] U7K[0] U7[2]
!! N1[5] N2K[0] N2[11] N3K[0] N3[18] N4[18] N4Ü[2] N5[23] N6K[0] N6[13]
!!!n7k: 0] N7[5] O1[2] O2K[0] O2[2] O3K[0] O3[0] HÖ[0
